!!!OTL: Schweizerton
!!!ARE: Europa, Mitteleuropa, Deutschland
!!!SCT: A0401
!!!YEM: Copyright 1995, estate of Helmut Schaffrath.
**kern
*ICvox
*Ivox
!! Mixed meters:  4/2; 6/2
*M6/2
*k[f#]
*G:
{2g
=1
2g
2g
2a
2b
=2
2cc
2b
1cc
=3
2r}
{2a
2b
2cc
=4
1dd
2cc
2b
1b
=5
*M4/2
1a
2r}
{2b
=6
*M6/2
1cc
2b
2.cc
4b
2a
=7
1g
1f#
2r}
{2f#
=8
1g
2g
1b
2b
=9
2cc
2b
2a
2g
2r}
{2g
=10
*M4/2
2a
2a
2b
2g
=11
1cc
1a}
=12
{1b
=13
2g
1cc
2b
=14
1a
1g
2r}
==
!!!AGN: Romanze, Ballade, Lied, religioeses Lied
!! Einzeldruck von 1546.
!!!ONB: ESAC (Essen Associative Code) Database: ALTDEU
!!!AMT: irregular
!!!AIN: vox
!!!EED: Helmut Schaffrath
!!!EEV: 1.0
*-
